X: 10011
T: BILL PAINE'S POLKA
C: Bob McQuillen 2 Nov 93
B: Bob's Note Book 10 #11
%R: polka, reel
Z: 2021 John Chambers <jc:trillian.mit.edu>
M: C
L: 1/8
K: D
AB |\
d2A2 d2A2 | BAGB A2Bc | d2A2 d2A2 | FAFD E2FA | defe d2FA | BAGB A2FA | Bdgf efed | c2A2 A2 ||
Bc |\
d2A2 d2A2 | BAGB A2Bc | d2fe dAFA | BdAF E2DE | FGAB A2FA | BABc d2cB | Adfa gecd | e2d2 d2 |]
[| FG |\
A2d2 d2AG | FDEF D2EF | G2GA Bdgf | edcB A2FA | B2GB A2FA | BdBG A2de | fdfa gfed | c2e2 e2 ||
FG |\
A2dc d2AA | BAGB A2AG | FDFA dfgf | edcB A2FA | B2GB A2FA | BdBG A2fa | gfed ceag | f2d2 d2 |]
%%begintext align
%% I'm sure Bill Paine has an official title
%% at Augusta, probably "program coordinator". In any case, he is one super wheel-greaser,
%% problem-solver, makes things happen-er, clerk-of-the-works, and general all-around
%% factotum. He is also an accommodating impromptu dancer, waltzing
%% with nice people on demand, and last summer he turned his talents towards
%% becoming a fine artillerist. He's been a good friend to me for years, and I am
%% so glad this tune has your name on it, Bill - Thanks a lot for all you do for all of us --
%%endtext

%%sep 1 1 500

%%sep 1 1 500

